!!!!SEGMENT: s-uu--instr-mus-i-hs-3-9a_forster-kaspar--sonata-la-pazza.krn
!!!cenid: 16xx:1699
!!!COM: Förster, Kaspar
!!!COM-rismid: pe30006147
!!!CDT:
!!!CNT:
!!!OTL: Sonata La Pazza
!!!PDT:
!!!AGN:
!!!SMS-siglum: S-Uu
!!!SMS-shelfmark: Instr. mus. i hs. 3:9a
!!!SMS-shelfwork: W
!!!SMS-variant:
!!!SMS-altvar:
!!!NIFC-rismid: 190008747
!!!URL-scan: https://www2.musik.uu.se/duben/presentationSource1.php?Select_Dnr=2111
!!!ONB-nifc: UWAGA: poszczególne partie dostępne po kliknięciu w „browse part”. Informacje nt stron tytułowych w opisie na stronie lub na RISM.
!!!key: d
**kern	**fba	**kern	**kern	**kern
*part4	*	*part3	*part2	*part1
*staff4	*	*staff3	*staff2	*staff1
*I"[Basso]	*	*I"Violdigbe:	*I"Violino 2do.	*I"Violino Imo
*I'[bc]	*	*I'vla da gamba	*I'vl 2	*I'vl 1
*Iorgan	*	*Iviolb	*Ivioln	*Ivioln
*ICklav	*	*ICstr	*ICstr	*ICstr
*clefG2	*	*clefF4	*clefG2	*clefG2
*k[]	*	*k[]	*k[]	*k[]
*d:	*	*d:	*d:	*d:
*M2/2	*	*M2/2	*M2/2	*M2/2
*met(C|)	*	*met(C)	*met(C)	*met(C|)
=1	=1	=1	=1	=1
!LO:TX:b:t=Allegro.	!	!LO:TX:b:t=Allegro.	!LO:TX:b:t=Allegro.	!LO:TX:b:t=Allegro.
!	!	!LO:TX:t=2.	!	!
8r	.	0r	8r	1r
8dd\L	.	.	8dd\L	.
8ff\	.	.	8ff\	.
8dd\J	.	.	8dd\J	.
!	!	!	!LO:TX:a:t=P:problem:mixed beam	!
8ee\L	.	.	8ee\L	.
8a\J	.	.	8a/J	.
8cc\L	.	.	8cc/L	.
16b\L	.	.	16b/L	.
16a\JJ	.	.	16a/JJ	.
=2	=2	=2-	=2-	=2-
4.b/	.	.	4.b/	2r
8b/	.	.	8b/	.
4a/	.	.	4a/	8r
.	.	.	.	8aa\L
8dd\L	.	.	8dd\L	8bb-X\
8ee\J	.	.	8ee\J	8gg\J
=3-	=3-	=3-	=3-	=3
4ff\	.	2r	4ff\	8aa\L
.	.	.	.	8dd\J
4dd\	.	.	4dd\	8ff\L
.	.	.	.	16ee\L
.	.	.	.	16dd\JJ
4dd\	x x 2	4r	4dd\	4.ee\
8a\L	.	8r	4cc#X\	.
*clefF4	*	*	*	*
8A\J	.	8A\	.	8ee\
=4	=4	=4	=4-	=4
8B-X\L	.	8B-X\L	8dd\	4dd\
8G\	.	8G\	4gg\	.
8A\	x 7 3	8A\	.	4r
8D\J	x x -	8D\J	8ff\	.
8F\L	.	8F\L	8aa\L	8r
16E\L	.	16E\L	16gg\L	4dd\
16D\JJ	.	16D\JJ	16ff\JJ	.
4E\	x x 76	8.E\L	8.gg\L	.
.	.	.	.	8cc#X\
.	.	16E\Jk	16gg\Jk	.
=5	=5	=5-	=5-	=5
4D/	.	16D/LL	8ff\	4.dd\
.	.	16E/	.	.
.	.	16D/	4a/	.
.	.	16C/JJ	.	.
4BB-X/	x x 76	8.BB-X/L	.	.
.	.	.	8g/	8dd\
.	.	16BB-/Jk	.	.
8AA/	x x 3-	8AA/	8a/L	8cc\L
4A\	x x 2	4A\	8ccny/	8ee\J
.	.	.	8.b/	4ee\
8G#X\	x x 6	8G#X\	.	.
.	.	.	16b/Jk	.
=6-	=6-	=6-	=6-	=6
4A\	x x -	4A\	4cc\	8ee\
.	.	.	.	4aa\
!LO:SIC:v:s=4Bn\	!	!	!	!
4B#\	x x 76	4Bny\	4dd\	.
.	.	.	.	8gg#X\
!LO:SIC:v:s=8c#\	!	!	!LO:TX:a:t=P:problem:mixed beam	!
8c\	x x 6	8c#X\	8ee\L	8aa\L
4d\	x x 32	4d\	8a/	8ff\J
.	.	.	8.a/	4ee\
!LO:SIC:v:s=8c#\	!	!	!	!
8c\	x x 6	8c#\	.	.
.	.	.	16a/Jk	.
=7	=7	=7-	=7-	=7-
8d\L	.	8d\L	8f/L	8ff\
8B-X\	.	8B#X\	8f/	4dd\
8G\	x 6 5	8Gny\	8.e/	.
8A\J	x x #	8A\J	.	8cc#X\
.	.	.	16e/Jk	.
8D\L	.	8r	[4f/	16dd\LL
.	.	.	.	16ee\
8D\	.	8D\L	.	16ff\
.	.	.	.	16ggny\JJ
8F\	.	8F\	16f/LL]	4aa\
.	.	.	16g/	.
8D\J	.	8D\J	16a/	.
.	.	.	16b/JJ	.
=8-	=8-	=8-	=8-	=8
!	!	!LO:TX:a:t=P:problem:mixed beam	!	!
8E/L	x x 6	8.E\L	16cc\LL	4r
.	.	.	16dd\	.
8AA/J	.	.	16cc\	.
.	.	16AA/Jk	16dd\JJ	.
8C/L	.	8C/L	8ee\L	8r
16BB/L	.	16BBny/L	16dd\L	8aa\
16AA/JJ	.	16AA/JJ	16cc\JJ	.
4.BB/	x x 76	4.BB/	16dd\LL	4aa\
.	.	.	16cc\	.
.	.	.	16dd\	.
.	.	.	16ee\JJ	.
.	.	.	8dd\L	4gg#X\
8BB/	.	8BB/	8dd\J	.
=9	=9	=9-	=9-	=9
4AA/	x x -	4AA/	8cc/L	4aa\
.	.	.	8a/	.
8D\L	x - 6	8D\L	8b-X/	4r
8E\J	.	8E\J	8g/J	.
4.F\	x x 6	4.F\	8a/L	2r
.	.	.	8d/J	.
.	.	.	8f/L	.
8G\	.	8G\	16e/L	.
.	.	.	16d/JJ	.
=10-	=10-	=10-	=10-	=10
4.A\	x 56 3-r	4.A\	8c/	8r
.	.	.	4a/	8ee\L
.	.	.	.	8ff\
8B\	x x 6	8Bny\	8g/	8dd\J
!	!	!	!	!LO:TX:a:t=P:problem:mixed beam
4c\	x x 56	4cny\	8g/L	8ee\L
.	.	.	16cc/L	8a/J
.	.	.	16dd/JJ	.
[4A\	x x -	[4A\	4ee\	8cc/L
.	.	.	.	16b/L
.	.	.	.	16a/JJ
=11	=11	=11-	=11-	=11
8A\L]	x x 2	8A\L]	4ee\	8.b\L
8G#X\	x x 6	8G#X\	.	.
.	.	.	.	16b\K
8A\	x x #	8A\	8r	8cc#X\
8F\J	x x 6	8F\J	8aa\	8dd\J
4.E\	x x 7	4.E\	4.gg\	4dd\
.	.	.	.	4cc#X\
8E\	x # 6	8E\	8aa\	.
*custos:D	*	*	*custos:ff	*
!LO:LB:g=original	!	!	!	!
=12	=12	=12-	=12-	=12-
!LO:TX:a:t=P:problem:mixed beam	!	!LO:TX:a:t=P:problem:mixed beam	!LO:LB:g=original	!
8D/L	.	8D/L	4ff\	4dd\
8d\	.	8d\	.	.
8B\	x - 5	8B\	4ff\	2dd\
8A\J	.	8A\J	.	.
8G#X\L	x 6 5	8G#X\L	2ee\	.
8E\	.	8E\	.	.
8A\	x x -	8A\	.	[4ccny\
8G#\J	.	8G#\J	.	.
=13	=13	=13-	=13-	=13
8F#X\L	x 6 5	8F#X\L	2dd\	4cc\]
8D\	.	8D\	.	.
8G\	.	8Gny\	.	[4b/
8F#\J	.	8F#\J	.	.
8E\L	.	8E\L	2cc\	4b/]
8C\	x 6 5-	8C\	.	.
8F#\	.	8F#\	.	[4a/
8E\J	.	8E\J	.	.
=14-	=14-	=14-	=14-	=14
!	!	!LO:TX:a:t=P:problem:mixed beam	!	!
8D/L	x 6 5	8D\L	4.bny/	4a/]
8BB/	.	8BB\	.	.
8E/	x x #	8E\	.	4g#X/
8EE/J	.	8EE/J	8b/	.
8AA/	x - 3	8AA/	8cc\L	4a/
4D/	x x 2	4D/	8ff\	.
.	.	.	8.ee\	4r
8C#X/	x x 6	8C#X/	.	.
.	.	.	16ee\Jk	.
*	*	*custos:D	*	*custos:gg
!	!	!	!	!LO:LB:g=original
=15	=15	=15-	=15-	=15
!	!	!LO:LB:g=original	!	!
8D/L	.	8D/L	8ff\L	8r
8BB-X/J	x x 6	8BB-X/	8dd\J	4gg\
4AA/	x x 76	8.AA/	8cc\L	.
.	.	.	16dd\L	8ff#X\
.	x 5 3	16AA/Jk	16cc\JJ	.
4.GG/	x 6- -	4.GG/	4b-X/	8gg\L
.	.	.	.	8dd\
.	.	.	4r	8ee-X\
8AA/	.	8AA/	.	8cc\J
=16-	=16-	=16-	=16	=16-
!	!	!	!	!LO:TX:a:t=P:problem:mixed beam
2BB-y/	x x 6	4.BB-X/	2r	8dd\L
.	.	.	.	8g/J
.	.	.	.	8b-X/L
.	.	8BB-/	.	16a/L
.	.	.	.	16g/JJ
!	!	!	!	!LO:TX:a:t=P:problem:mixed beam
8C/L	x x 6	8Cny/L	4r	8.a/L
8D/J	.	8D/J	.	.
.	.	.	.	16a/K
4E-X\	x x 6	4E-X\	8r	8g/
.	.	.	[8cc\	8gg\J
=17-	=17-	=17-	=17-	=17
4D/	x x 76	4D/	8cc\L]	4ff\
.	.	.	8b#X\	.
!	!	!LO:TX:a:t=P:problem:mixed beam	!	!
8C\L	x x -	8C/L	8cc\	8ee-X\L
8G\J	x x -	8G\J	8b-X\J	8dd\J
4G\	x 5 3	4G\	4a/	4cc\
.	- 4 2	.	.	.
4F#X\	x x 6	4F#X\	8r	4dd\
.	.	.	8aa\	.
=18-	=18-	=18-	=18-	=18-
4G\	x x 6	4G\	8bb-X\L	4dd\
.	.	.	8gg\	.
!	!	!	!LO:TX:t=a	!
8.F#\L	.	8.Fny\L	8aa\	4r
.	.	.	8dd\J	.
16Eny\Jk	.	16Eny\Jk	.	.
8D/	.	8D/	8ff\L	2r
4d\	x 3 2	4d\	16ee\L	.
.	.	.	16dd\JJ	.
.	.	.	4ee\	.
8c#X\	x x 6	8c#X\	.	.
=19	=19	=19-	=19-	=19
!LO:TX:a:t=P:problem:mixed beam	!	!LO:TX:a:t=P:problem:mixed beam	!	!
8d\L	x x #	8d\L	4ff#X\	2r
8D/	.	8D/	.	.
8E-X/	.	8E-X/	4gg\	.
8C/J	.	8C/J	.	.
8D/L	x x #	8D/L	8ff#\L	4r
8GG/J	.	8GG/J	8gg\J	.
8BB-X/L	.	8BB-X/L	8dd\L	8r
16AA/L	.	16AA/L	16cc\L	8gg\
16GG/JJ	.	16GG/JJ	16b-X\JJ	.
=20-	=20-	=20-	=20-	=20
2AA/	x x 76	4.AA/	4.cc\	4gg\
.	.	.	.	4ff#X\
.	.	8AA/	8cc\	.
!LO:TX:a:t=P:problem:mixed beam	!	!LO:TX:a:t=P:problem:mixed beam	!	!
8GG/L	.	8GG/L	4b-X/	4gg\
8G\	.	8G\	.	.
8Eny\	x - 5	8Eny\	4b-/	[4gg\
8D\J	.	8D\J	.	.
=21	=21	=21-	=21-	=21
8C#X/L	x 6 5	8C#X/L	2a/	4gg\]
8AA/	.	8AA/	.	.
8D/	.	8D/	.	[4ff\
!LO:SIC:v:s=8Cn/J	!LO:SIC:v:s=8Cn/J	!	!	!
8C#/J	.	8C#/J	.	.
!LO:N:acc=#	!	!	!	!
8BBnX/L	x -6 5	8BB#X/L	2g/	4ff\]
8GG/	.	8GG/	.	.
!LO:SIC:v:s=8Cn/	!LO:SIC:v:s=8Cn/	!	!	!
8C#/	.	8C#/	.	[4ee\
8BB-X/J	.	8BB-X/J	.	.
=22-	=22-	=22-	=22-	=22
8AA/L	x 6 5	8AA/L	2f/	4ee\]
8FF/	.	8FF/	.	.
8BB-X/	.	8BB-X/	.	[4dd\
8AA/J	.	8AA/J	.	.
4GG/	x 6 5	4GG/	4.e/	4dd\]
4AA/	x x #	4AA/	.	4cc#X\
.	.	.	8e/	.
=23	=23	=23-	=23-	=23
2D/	x x -	2D/	4f/	8dd\L
.	.	.	.	8dd\
.	.	.	4r	8ff\
.	.	.	.	8dd\J
!	!	!	!	!LO:TX:a:t=P:problem:mixed beam
4C/	x x 6	4Cny/	2r	8ee\L
.	.	.	.	8a/J
!LO:TX:a:t=P:problem:mixed beam	!	!LO:TX:a:t=P:problem:mixed beam	!	!
8AA/L	x x -	8AA/L	.	8cc/L
8A\J	.	8A\J	.	16b/L
.	.	.	.	16a/JJ
=24-	=24-	=24-	=24	=24
4A\	x x 2	4A\	2r	4.b/
4G#X\	x x 6	4G#X\	.	.
.	.	.	.	8b/
4A\	x x -	4A\	8r	4cc\
.	.	.	8a/L	.
8D\L	x - 6	8D\L	8b-X/	8ff\L
8E\J	.	8E\J	8g/J	8gg\J
*custos:F	*	*	*	*
!LO:LB:g=original	!	!	!	!
=25	=25	=25-	=25-	=25
2F\	x x 6	4.F\	8a/L	8cc\
.	.	.	8d/J	8r
.	.	.	8f/L	4r
.	.	8F\	16e/L	.
.	.	.	16d/JJ	.
4G\	x 6 5	4Gny\	4.e/	8r
.	.	.	.	4dd\
4A\	x x #	8r	.	.
.	.	8A\	8e/	8cc\
=26-	=26-	=26-	=26-	=26
!	!	!LO:TX:a:t=P:problem:mixed beam	!	!
8B-X\L	.	8B-X\L	4d/	8dd\
8G\	.	8G\	.	4gg\
8A\	x 7 3	8A\	4r	.
8D\J	x x -	8D/J	.	8ff#X\
8F\L	.	8F\L	8r	8aa\L
16E\L	.	16E\L	4dd\	16gg\L
16D\JJ	.	16D\JJ	.	16ff#\JJ
4E\	x x 76	8.E\L	.	8.gg\L
.	.	.	8cc#X\	.
.	.	16E\Jk	.	16gg\Jk
*	*	*	*	*custos:ff
!	!	!	!	!LO:LB:g=original
=27	=27	=27-	=27-	=27
4D/	.	16D/LL	4.dd\	8ff\
.	.	16E/	.	.
.	.	16D/	.	4a/
.	.	16C/JJ	.	.
4BB-X/	x x 76	8.BB-X/L	.	.
.	.	.	8dd\	8g/
.	.	16BB-/Jk	.	.
8AA/	.	8AA/	8ccny\L	8a/L
4A\	x - 32	4A\	8ee\J	8cc/
.	.	.	4ee\	8.b/
8G#X\	x x 6	8G#X\	.	.
.	.	.	.	16b/Jk
=28-	=28-	=28-	=28-	=28
!	!	!LO:N:vis=8	!	!
4A\	x x -	4A\	8ee\	4cc\
.	.	.	4aa\	.
!LO:SIC:v:s=4B\	!	!	!	!
4B#X\	x x 76	4B#X\	.	4dd\
.	.	.	8gg#X\	.
*	*	*	*custos:aa	*
!LO:SIC:v:s=8c#\	!	!	!LO:LB:g=original	!LO:TX:a:t=P:problem:mixed beam
8c\	x x 6	8c#X\	8aa\L	8ee\L
4d\	x x -2	4d\	8ff\J	8a/
.	.	.	4ee\	8.a/
!LO:SIC:v:s=8c#\	!	!	!	!
8c\	x x 6	8c#\	.	.
.	.	.	.	16a/Jk
*	*	*custos:d	*	*
=29	=29	=29-	=29-	=29
!	!	!LO:LB:g=original	!	!
8d\L	.	8d\L	8ff\	8f/L
8B-X\	.	8B-X\	4dd\	8f/
8G\	x 6 5	8Gny\	.	8.e/
8A\J	x x #	8A\J	8cc#X\	.
.	.	.	.	16e/Jk
8D/L	.	8D/L	4.dd\	4.f/
8C/	.	8C/	.	.
8BB-X/	.	8BB-X/	.	.
!	!	!	!LO:SIC:v:s=8ccn\	!
8AA/J	x # 6	8AA/J	8cc#\	8f#X/
=30-	=30-	=30-	=30-	=30-
4GG/	x x -	4GG/	4b-X/	4g/
4FF#X/	x x 6	4FF#X/	[4a/	8dd\L
.	.	.	.	8cc\J
2GG/	x - 9	2GG/	8a/L]	[2b-X/
.	x 3 8	.	16g/L	.
!	!	!	!LO:TX:b:t=P:problem:# below	!
.	x 6 4	.	16f#X/JJ	.
.	x 5 3	.	[4g/	.
=31-	=31	=31-	=31-	=31
1DD	.	1DD	4g/]	4b-/]
!	!	!	!LO:TX:b:t=P:problem:# below	!
.	.	.	8f#X/L	8a/L
.	.	.	8e/J	8g/J
.	.	.	2f#X/	2a/
=32:|!|:	=32:|!|:	=32:|!|:	=32:|!|:	=32:|!|:
!LO:TX:b:t=Adagio. Violino solo.	!	!LO:TX:b:t=Allegro.	!LO:TX:b:t=Allegro.	!
1D	x x -	00r	00r	4r
!	!	!	!	!LO:TX:b:t=adagio.
.	.	.	.	2ff\
.	.	.	.	8gg\L
.	.	.	.	8aa\J
=33-	=33-	=33-	=33-	=33-
2E\	x # 6	.	.	4.cc#X\
.	.	.	.	8dd\
4.D/	.	.	.	[2dd\
8E\	.	.	.	.
=34-	=34-	=34-	=34-	=34-
2F#X\	x x 6	.	.	4dd\]
.	.	.	.	4ccny\
2G\	x x -	.	.	4b-X/
.	.	.	.	8cc\L
.	.	.	.	8dd\J
=35	=35	=35-	=35-	=35-
2A\	x # 6	.	.	4.f#X/
.	.	.	.	8g/
[2G\	.	.	.	4g/
.	.	.	.	[4bb-X\
=36-	=36-	=36-	=36-	=36-
2G\]	.	00r	00r	8.bb-\L]
.	.	.	.	16aa\Jk
.	.	.	.	8.gg\L
.	.	.	.	16ff\Jk
2G#X\	x 6 5-	.	.	4.ee\
.	.	.	.	8dd\
=37-	=37	=37-	=37-	=37-
8.A\L	x x -	.	.	4.cc\
16Gny\K	.	.	.	.
8F\	.	.	.	.
8E\J	x # 6	.	.	8cc#X\
[2D/	x x 5	.	.	8.ff\L
.	.	.	.	16ee\Jk
.	.	.	.	8.dd\L
.	.	.	.	16cc#\Jk
=38-	=38-	=38-	=38-	=38-
4D/]	x - 6	.	.	4.b-X/
4E\	.	.	.	.
.	.	.	.	8a/
4F\	.	.	.	[2a/
4C/	x x 6	.	.	.
=39	=39	=39-	=39-	=39-
4D/	x 6 5	.	.	4.a/]
4E\	.	.	.	.
.	.	.	.	16b#X/LL
.	.	.	.	16ccny/JJ
!	!	!	!	!LO:TX:a:t=P:problem:mixed beam
!LO:TX:b:t=allegro.	!	!	!	!LO:TX:b:t=Allegro.
2AA/	.	.	.	8a/L
.	.	.	.	8ee\
.	.	.	.	8ee\
.	.	.	.	8ee\J
*	*	*	*	*custos:ff
=40-	=40-	=40-	=40-	=40-
!	!	!	!	!LO:LB:g=original
4D/	x x -	00r	00r	8ff\L
.	.	.	.	8dd\
4G\	.	.	.	8dd\
.	.	.	.	8dd\J
4C/	.	.	.	8ee\L
.	.	.	.	8cc\
4F\	.	.	.	8cc\
.	.	.	.	8cc\J
=41	=41	=41-	=41-	=41-
4D/	x x -	.	.	16ff\LL
.	.	.	.	16ee\
.	.	.	.	16dd\
.	.	.	.	16cc\JJ
4E\	x x 43	.	.	16bny/LL
.	.	.	.	16a/
.	.	.	.	16b/
.	.	.	.	16cc/JJ
!	!	!	!	!LO:TX:a:t=P:problem:mixed beam
4AA/	.	.	.	8a/L
.	.	.	.	8aa\
4D/	.	.	.	8aa\
.	.	.	.	8aa\J
=42-	=42-	=42-	=42-	=42-
4GG/	x x -	.	.	8bb-X\L
.	.	.	.	8gg\
4C/	.	.	.	8gg\
.	.	.	.	8gg\J
4FF/	.	.	.	8aa\L
.	.	.	.	8ff\
4BB-X/	.	.	.	8ff\
.	.	.	.	8ff\J
*custos:GG	*	*	*	*
!LO:LB:g=original	!	!	!	!
=43	=43	=43-	=43-	=43-
4GG/	x x -	.	.	16bb-X\LL
.	.	.	.	16aa\
.	.	.	.	16gg\
.	.	.	.	16ff\JJ
4AA/	x x 43	.	.	16ee\LL
.	.	.	.	16dd\
.	.	.	.	16ee\
.	.	.	.	16ff\JJ
2D/	.	.	.	8dd\L
.	.	.	.	16ff\L
.	.	.	.	16ee\JJ
.	.	.	.	16dd\LL
.	.	.	.	16cc\
.	.	.	.	16b\
.	.	.	.	16a\JJ
=44-	=44-	=44-	=44-	=44-
!	!	!	!	!LO:TX:a:t=P:problem:mixed beam
2.E\	x x 6	0r	0r	8g/L
.	.	.	.	16gg\L
.	.	.	.	16ff\JJ
.	.	.	.	16ee\LL
.	.	.	.	16dd\
.	.	.	.	16cc\
.	.	.	.	16b\JJ
.	.	.	.	16cc/LL
.	.	.	.	16g/
.	.	.	.	16a/
.	.	.	.	16b/JJ
4EE/	x 6 5-	.	.	16cc/LL
.	.	.	.	16a/
.	.	.	.	16b-X/
.	.	.	.	16g/JJ
=45	=45	=45-	=45-	=45-
!	!	!	!	!LO:TX:a:t=P:problem:mixed beam
2FF/	.	.	.	8a/L
.	.	.	.	16aa\L
.	.	.	.	16gg\JJ
.	.	.	.	16ff\LL
.	.	.	.	16ee\
.	.	.	.	16dd\
.	.	.	.	16cc\JJ
4GG/	x x -	.	.	16b-X/LL
.	.	.	.	16a/
.	.	.	.	16g/
.	.	.	.	16f/JJ
4AA/	x x 43	.	.	16e/LL
.	.	.	.	16d/
.	.	.	.	16e/
.	.	.	.	16f/JJ
=46	=46	=46-	=46-	=46-
!LO:TX:b:t=tutti.	!	!	!	!
8DD/L	.	8r	2r	4d/
8D\	.	8D/L	.	.
8D\	.	8D/	.	4r
8D\J	.	8D/J	.	.
8E/L	.	8E/L	8r	2r
8C/	x x 6	8C/	8a/L	.
8C/	.	8C/	8a/	.
8C/J	.	8C/J	8a/J	.
=47-	=47-	=47-	=47-	=47-
8D/L	x x 6	8D/L	8b/L	1r
8BB/	.	8BB/	8g/	.
8BB/	x x 6	8BB/	8g/	.
8BB/J	.	8BB/J	8g/J	.
4C/	x x 6	4C/	8a/L	.
.	.	.	8f#X/	.
4D/	x x #	4D/	8f#/	.
.	.	.	8f#/J	.
=48	=48	=48	=48-	=48-
4.G\	.	8G\L	8g/L	8r
.	.	16d\L	8b/	8dd\L
.	.	16c\JJ	.	.
.	.	16B\LL	8b/	8dd\
.	.	16A\	.	.
8G\	.	16G\	8b/J	8dd\J
.	.	16F#X\JJ	.	.
8E\L	x x 6	8E\L	8cc/L	8ee\L
16A\L	.	16A\L	8a/	8cc\
16G\JJ	.	16G\JJ	.	.
!LO:SIC:v:s=16F#\LL	!	!	!	!
16F\LL	.	16F#\LL	8a/	8cc\
16E\	.	16E\	.	.
16D\	.	16D\	8a/J	8cc\J
16C\JJ	.	16C\JJ	.	.
=49-	=49-	=49-	=49-	=49-
!LO:TX:a:t=P:problem:mixed beam	!	!LO:TX:a:t=P:problem:mixed beam	!	!
8BB\L	.	8BB/L	8b/L	8dd\L
8B\	x x 6	16B\L	8g/	8bny\
.	.	16A\JJ	.	.
8G\	x 5 3	16G\LL	8g/	8b\
.	.	16F#Xi\	.	.
8E\J	x x -	16E\	8g/J	8b\J
.	.	16D\JJ	.	.
8AA/	x x -	16C/LL	8a/L	8cc/L
.	.	16AA/	.	.
4D/	x x #	16D/	8f#X/J	8a/
.	.	16E/JJ	.	.
!	!	!	!LO:TX:a:t=P:problem:mixed beam	!
.	.	16D/LL	8f#/L	8a/
.	.	16C/	.	.
!LO:TX:t=P:problem:wykreślony fragment	!	!	!	!
8D/	.	16BB/	16dd\L	8a/J
.	.	16AA/JJ	16cc\JJ	.
*	*	*	*	*custos:b
!	!	!	!	!LO:LB:g=original
=50	=50	=50-	=50-	=50-
!LO:TX:a:t=P:problem:mixed beam	!	!LO:TX:a:t=P:problem:mixed beam	!	!LO:TX:a:t=P:problem:mixed beam
8GG/L	.	8GG/L	16b\LL	8b/L
.	.	.	16dd\	.
8G\	.	8G\	16gg\	16bbny\L
.	.	.	16ff\JJ	16aa\JJ
8G\	x x 6	8G\	16ee\LL	16gg\LL
.	.	.	16dd\	16ff\
8G\J	.	8G\J	16cc\	16ee\
.	.	.	16b\JJ	16dd\JJ
8A\L	x x -	8A\L	8a/L	8cc\L
8F\	.	8Fny\	8a/	16aa\L
.	.	.	.	16gg\JJ
8F\	.	8F\	8a/	16ff\LL
.	.	.	.	16ee\
8F\J	.	8F\J	8a/J	16dd\
.	.	.	.	16cc\JJ
=51-	=51-	=51-	=51-	=51-
8G\L	.	8G\L	8b\L	16b\LL
.	.	.	.	16dd\
8E\	.	8E\	16ee\L	16gg\
.	.	.	16dd\JJ	16ff\JJ
8E\	.	8E\	16cc/LL	16ee\LL
.	.	.	16b/	16dd\
8E\J	.	8E\J	16a/	16cc\
.	.	.	16g/JJ	16b\JJ
!	!	!	!LO:TX:a:t=P:problem:mixed beam	!LO:TX:a:t=P:problem:mixed beam
8F\L	.	8F\L	8fny/L	8a/L
8D\	.	8D\	16aa\L	16ff\L
.	.	.	16gg\JJ	16ee\JJ
8D\	.	8D\	16ff\LL	16dd\LL
.	.	.	16ee\	16cc\
8D\J	.	8D\J	16dd\	16b\
.	.	.	16cc\JJ	16a\JJ
=52	=52	=52-	=52-	=52-
!LO:TX:a:t=P:problem:mixed beam	!	!LO:TX:a:t=P:problem:mixed beam	!	!
8E\L	x 5 3-	8E\L	16b\LL	16g/LL
.	.	.	16ee\	16g/
8F\	.	8F\	16dd\	16f/
.	.	.	16cc\JJ	16e/JJ
8G\	.	8G\	8.cc\L	16d/LL
.	.	.	.	16e/
8GG/J	x x 43	8GG/J	.	16f/
.	.	.	16b\Jk	16g/JJ
!LO:TX:a:t=P:problem:mixed beam	!	!LO:TX:a:t=P:problem:mixed beam	!	!
8C/L	.	8C/L	8cc\L	4e/
8c\	.	16c\L	8ee\	.
.	.	16B\JJ	.	.
8c\	.	16A\LL	8ee\	4r
.	.	16G\	.	.
8c\J	.	16F\	8ee\J	.
.	.	16E\JJ	.	.
=53-	=53-	=53-	=53-	=53-
!	!	!LO:TX:a:t=P:problem:mixed beam	!	!
8d\L	x x -	8D/L	8ff\L	8r
8B\	.	16d\L	8dd\	8bb\L
.	.	16c\JJ	.	.
8B\	.	16B\LL	8dd\	8bb\
.	.	16A\	.	.
8G\J	.	16G\	8dd\J	8bb\J
.	.	16F\JJ	.	.
8E\L	.	8E\L	8ee\L	8ccc\L
16A\L	.	16A\L	8cc\	8aa\
16G\JJ	.	16G\JJ	.	.
16F\LL	.	16F\LL	8cc\	8aa\
16E\	.	16E\	.	.
16D\	.	16D\	8cc\J	8aa\J
16C\JJ	.	16C\JJ	.	.
*custos:BB	*	*	*	*
!LO:LB:g=original	!	!	!	!
=54	=54	=54-	=54-	=54-
!	!	!LO:TX:a:t=P:problem:mixed beam	!	!
8BB/L	.	16BB/LL	8dd\L	8bb\L
.	.	16GG/	.	.
8GG/	.	16G\	8b\	16bb\L
.	.	16F\JJ	.	16aa\JJ
8GG/	.	16E/LL	8b\	16gg\LL
.	.	16D/	.	16ff\
8GG/J	.	16C/	8b\J	16ee\
.	.	16BB/JJ	.	16dd\JJ
*	*	*custos:AA	*custos:cc	*
!	!	!LO:LB:g=original	!	!
!LO:TX:a:t=P:problem:mixed beam	!	!LO:TX:a:t=P:problem:mixed beam	!LO:LB:g=original	!
8AA/L	.	8AA/L	8cc\L	4cc\
8A\	.	8A\	16ccc\L	.
.	.	.	16bb\JJ	.
8A\	.	8A\	16aa\LL	4r
.	.	.	16gg\	.
8A\J	.	8A\J	16ff\	.
.	.	.	16ee\JJ	.
=55-	=55-	=55-	=55-	=55-
!LO:TX:a:t=P:problem:mixed beam	!	!LO:TX:a:t=P:problem:mixed beam	!	!
8B\L	.	8B\L	16dd\LL	1r
.	.	.	16b\	.
8BB/	.	8BB/	16dd\	.
.	.	.	16cc\JJ	.
8BB/	.	8BB/	16b/LL	.
.	.	.	16a/	.
8BB/J	.	8BB/J	16g/	.
.	.	.	16f/JJ	.
4C#X/	x x 6	4C#X/	16e/LL	.
.	.	.	16a/	.
.	.	.	16g/	.
.	.	.	16a/JJ	.
8D/L	x x -	8D/L	8f/L	.
8GG/J	x x 6	8GG/J	16e/L	.
.	.	.	16d/JJ	.
=56	=56	=56-	=56-	=56-
!	!	!	!LO:TX:a:t=P:problem:mixed beam	!
4.AA/	x x #	4.AA/	8c#X/L	8r
.	.	.	8cc#X\	8ee\L
.	.	.	8cc#\	8ee\
8AA/	.	8AA/	8cc#\J	8ee\J
4D/	.	4DD/	8dd\L	8ff\L
.	.	.	8b\	8dd\
4G\	.	4r	8b\	8dd\
.	.	.	8b\J	8dd\J
=57-	=57-	=57-	=57-	=57-
4C/	.	1r	8ccny/L	8ee\L
.	.	.	8a/	8cc\
4F\	x x 65	.	8a/	8cc\
.	.	.	8a/J	8cc\J
4D/	.	.	8b/L	8dd\L
.	.	.	8a/	8cc\
4E\	x x 43	.	8.a/	8.b\
.	.	.	16g#X/Jk	16b\Jk
=58	=58	=58-	=58-	=58-
2AA/	.	8r	8a/L	8cc\L
.	.	16A\LL	16cc/L	8cc\
.	.	16G\JJ	16b/JJ	.
.	.	16F\LL	16a/LL	8cc\
.	.	16E\	16gny/	.
.	.	16D\	16f/	8cc\J
.	.	16Cny\JJ	16e/JJ	.
!	!	!LO:TX:a:t=P:problem:mixed beam	!	!
2BB/	.	8BB/L	8d/L	8dd\L
.	.	16B\L	8d/	16dd\L
.	.	16A\JJ	.	16cc\JJ
.	.	16G\LL	8d/	16b/LL
.	.	16F\	.	16a/
.	.	16E\	8d/J	16g/
.	.	16D\JJ	.	16f/JJ
=59-	=59-	=59-	=59-	=59-
!	!	!	!LO:TX:a:t=P:problem:mixed beam	!LO:TX:a:t=P:problem:mixed beam
2C/	.	8C/L	8e/L	8e/L
.	.	8C/	16ee\L	16gg\L
.	.	.	16dd\JJ	16ff\JJ
.	.	8C/	16cc/LL	16ee\LL
.	.	.	16b/	16dd\
.	.	8C/J	16a/	16cc\
.	.	.	16g/JJ	16b\JJ
*	*	*	*	*custos:a
!	!	!	!	!LO:LB:g=original
8D/L	x x #	8D/L	8f#X/	8a/L
8C/J	.	8C/	4g/	8b/
4D/	.	8D/	.	8.a/
.	.	8DD/J	8f#X/	.
.	.	.	.	16a/Jk
=60	=60	=60-	=60-	=60
!LO:TX:a:t=P:problem:mixed beam	!	!LO:TX:a:t=P:problem:mixed beam	!	!LO:TX:a:t=P:problem:mixed beam
8GG/L	.	8GG/L	4g/	8b/L
8G\	.	8G\	.	8bb\
8G\	.	8G\	4r	8bb\
8G\J	.	8G\J	.	8bb\J
8A\L	.	8A\L	8r	8ccc\L
8F\	x x 6	8F\	8dd\L	16aa\L
.	.	.	.	16gg\JJ
8F\	.	8F\	8dd\	16ff\LL
.	.	.	.	16ee\
8F\J	.	8F\J	8dd\J	16dd\
.	.	.	.	16cc\JJ
=61-	=61-	=61-	=61	=61-
8G\L	x x 6	8G\L	8ee\L	8b/
8E\	.	8E\	8cc\	8r
8E\	x x 6	8E\	8cc\	4r
8E\J	.	8E\J	8cc\J	.
4F\	.	4F\	8dd\L	2r
.	.	.	8b\	.
4G\	.	4G\	8b\	.
.	.	.	8b\J	.
=62	=62	=62-	=62-	=62
4.C/	.	8C/L	8cc\L	8r
.	.	16E/L	8ee\	8gg\L
.	.	16D/JJ	.	.
.	.	16E/LL	8ee\	8gg\
.	.	16D/	.	.
8C/	.	16C/	8ee\J	8gg\J
.	.	16BB/JJ	.	.
8AA/L	x x 6	8AA/L	8ff\L	8aa\L
16D/L	.	16D/L	8dd\	8ff\
16C/JJ	.	16C/JJ	.	.
16BB/LL	.	16BB/LL	8dd\	8ff\
16AA/	.	16AA/	.	.
16GG/	.	16GG/	8dd\J	8ff\J
16FF/JJ	.	16FF/JJ	.	.
=63	=63	=63-	=63-	=63-
!LO:TX:a:t=P:problem:mixed beam	!	!LO:TX:a:t=P:problem:mixed beam	!	!
8EE/L	.	8EE/L	8ee\L	8gg\L
8E\J	.	16E\L	8cc\	8ee\
.	.	16D\JJ	.	.
8C/L	.	16C/LL	8cc\	8ee\
.	.	16BB/	.	.
8AA/J	.	16AA/	8cc\J	8ee\J
.	.	16GG/JJ	.	.
8DD/	.	16F\LL	8dd\L	8ff\L
.	.	16D\	.	.
4GG/	.	16G\	8b\	8dd\
.	.	16A\JJ	.	.
.	.	16G\LL	8b\	8dd\
.	.	16F\	.	.
8GG/	.	16E\	8b\J	8dd\J
.	.	16D\JJ	.	.
=64	=64	=64-	=64-	=64-
2C/	.	4C/	8cc\L	8ee\L
.	.	.	16ee\L	16gg\L
.	.	.	16dd\JJ	16ff\JJ
.	.	4r	16cc/LL	16ee\LL
.	.	.	16b/	16dd\
.	.	.	16a/	16cc\
.	.	.	16g/JJ	16b\JJ
2FF/	.	8r	4a/	4cc\
.	.	16F\LL	.	.
.	.	16E\JJ	.	.
.	.	16D/LL	4r	4r
.	.	16C/	.	.
.	.	16BB/	.	.
.	.	16AA/JJ	.	.
*	*	*	*custos:b	*
=65-	=65-	=65-	=65-	=65-
!	!	!	!LO:LB:g=original	!
2GG/	.	4GG/	8r	8r
.	.	.	16b/LL	16dd\LL
.	.	.	16a/JJ	16cc\JJ
.	.	4r	16g/LL	16b/LL
!	!	!	!LO:TX:b:t=P:problem:# below	!
.	.	.	16f#X/	16a/
.	.	.	16e/	16g/
!	!	!	!	!LO:TX:b:t=P:problem:# below
.	.	.	16d/JJ	16f#/JJ
2C/	.	8r	4e/	4g/
.	.	16c\LL	.	.
.	.	16B\JJ	.	.
.	.	16A\LL	4r	4r
.	.	16G\	.	.
.	.	16F\	.	.
.	.	16E\JJ	.	.
=66	=66	=66-	=66	=66-
2D/	.	8D/L	8r	2r
.	.	16D/L	16ff\LL	.
.	.	16C/JJ	16ee\JJ	.
.	.	16BB/LL	16dd\LL	.
.	.	16AA/	16cc\	.
.	.	16GG/	16b\	.
.	.	16FF/JJ	16a\JJ	.
*	*	*custos:EE	*	*
!	!	!LO:LB:g=original	!LO:TX:a:t=P:problem:mixed beam	!
4.E\	x x 6	8EE/L	8g/L	8r
.	.	8EE/	8gg\	16gg\LL
.	.	.	.	16ff\JJ
.	.	8EE/	8gg\	16ee\LL
.	.	.	.	16dd\
8EE/	.	8EE/J	8gg\J	16cc\
.	.	.	.	16b\JJ
=67-	=67-	=67-	=67-	=67-
!	!	!	!	!LO:TX:a:t=P:problem:mixed beam
8FF/L	.	8FF/L	8ff\L	16a/LL
.	.	.	.	16aa\
8GG/J	.	8GG/	16ee\L	16gg\
.	.	.	16dd\JJ	16ff\JJ
4AA/	x x 4#r	8.AA/	8.dd\L	16ee\LL
.	.	.	.	16dd\
.	.	.	.	16ee\
.	.	16AA/Jk	16cc#Xi\Jk	16ff\JJ
4DD/	.	4DD/	8dd\L	8dd\L
.	.	.	8ff#Xi\	8aa\
4D/	x x #	4D/	8ff#\	8aa\
.	.	.	8ff#\J	8aa\J
=68	=68	=68-	=68-	=68-
4GG/	x x -	4GG/	8gg\L	8bb-X\L
.	.	.	8ee\	8gg\
4C/	.	4C/	8ee\	8gg\
.	.	.	8ee\J	8gg\J
4FF/	.	4FF/	8ffny\L	8aa\L
.	.	.	8dd\	8ff\
4BB-X/	.	4BB-X/	8dd\	8ff\
.	.	.	8dd\J	8ff\J
=69-	=69-	=69-	=69-	=69-
8GG/L	.	8GG/L	8gg\L	8bb-X\L
8AA/	x x 6	8AA/	8ff\	8aa\
8BB-y/	x 6 5	8BB-yX/	8.ff\	8.gg\
8C/J	x x #	8C/J	.	.
.	.	.	16ee\Jk	16gg\Jk
*custos:FF	*	*	*	*
!LO:LB:g=original	!	!	!	!
!LO:TX:a:t=P:problem:mixed beam	!	!LO:TX:a:t=P:problem:mixed beam	!	!
8FF/L	.	8FF/L	4ff\	4aa\
8F\	.	16F\L	.	.
.	.	16E\JJ	.	.
8D\	.	16D/LL	[4ff\	4aa\
.	.	16E/	.	.
8C\J	.	16D/	.	.
.	.	16C/JJ	.	.
=70	=70	=70-	=70	=70-
!	!	!LO:N:acc=#	!	!
8BB#X/L	x 6 5-	16BBnX/LL	4ff\]	4.gg\
.	.	16AA/	.	.
8GG/	.	16BB/	.	.
.	.	16GG/JJ	.	.
8C/	.	16C/LL	[4ee\	.
.	.	16D/	.	.
8BB#/J	.	16C/	.	8gg\
.	.	16BB/JJ	.	.
8AA/L	# 6 5	16AA/LL	4ee\]	4.ff\
.	.	16GG/	.	.
8FF/	.	16AA/	.	.
.	.	16FF/JJ	.	.
8BB-X/	.	16BB-X/LL	[4dd\	.
.	.	16C/	.	.
8AA/J	.	16BB-/	.	8ff\
.	.	16AA/JJ	.	.
*	*	*	*	*custos:ee
=71-	=71-	=71-	=71-	=71-
!	!	!	!	!LO:LB:g=original
4GG/	x 6 5	4GG/	4dd\]	4.ee\
4AA/	x x #	4AA/	4cc#X\	.
.	.	.	.	8ee\
!LO:TX:a:t=P:problem:mixed beam	!	!	!	!
8DD/L	.	8DD/L	4dd\	4ff\
8D\	x x -	8D/	.	.
8D\	.	8D/	4r	4r
8D\J	.	8D/J	.	.
=72	=72	=72-	=72	=72-
8E/L	.	8E/L	8r	1r
8C/	x x 6	8C/	8a/L	.
8C/	.	8C/	8a/	.
8C/J	.	8C/J	8a/J	.
8D/L	x x 6	8D/L	8b/L	.
8BB/	.	8BBny/	8g/	.
8BB/	x x 6	8BB/	8g/	.
8BB/J	.	8BB/J	8g/J	.
=73-	=73-	=73-	=73-	=73-
4C/	x x 6	4C/	8a/L	2r
.	.	.	8f#X/	.
4D/	x x #	4D/	8f#/	.
.	.	.	8f#/J	.
4.G\	.	8G\L	8g/L	8r
.	.	16d\L	8b/	8dd\L
.	.	16c\JJ	.	.
.	.	16B\LL	8b/	8dd\
.	.	16A\	.	.
8G\	.	16G\	8b/J	8dd\J
.	.	16F#Xi\JJ	.	.
=74	=74	=74-	=74-	=74-
8E\L	.	8E\L	8cc/L	8ee\L
16A\L	x x -	16A\L	8a/	8cc\
16G\JJ	.	16G\JJ	.	.
!LO:SIC:v:s=16F#\LL	!	!	!	!
16F\LL	.	16F#y\LL	8a/	8cc\
16E\	.	16E\	.	.
16D\	.	16D\	8a/J	8cc\J
16C\JJ	.	16C\JJ	.	.
!LO:TX:a:t=P:problem:mixed beam	!	!LO:TX:a:t=P:problem:mixed beam	!	!
8BB/L	x x 6	8BB/L	8b/L	8dd\L
8B\	.	16B\L	8g/	8b\
.	.	16A\JJ	.	.
8G\	.	16G\LL	8g/	8b\
.	.	16F#X\	.	.
8E\J	x 5 3-	16E\	8g/J	8b\J
.	.	16D\JJ	.	.
=75-	=75-	=75-	=75-	=75-
8AA/	x x -	16C/LL	8a/L	8cc/L
.	.	16AA/	.	.
!	!	!	!LO:TX:b:t=P:problem:# below	!
4D/	x x #	16D/	8f#X/J	8a/
.	.	16E/JJ	.	.
!	!	!	!LO:TX:a:t=P:problem:mixed beam	!
.	.	16D/LL	8f#/L	8a/
.	.	16C/	.	.
8D/	.	16BB/	16dd\L	8a/J
.	.	16AA/JJ	16cc\JJ	.
!LO:TX:a:t=P:problem:mixed beam	!	!LO:TX:a:t=P:problem:mixed beam	!	!LO:TX:a:t=P:problem:mixed beam
8GG/L	.	8GG/L	16b\LL	8b/L
.	.	.	16dd\	.
8G\	.	8G\	16gg\	16bbny\L
.	.	.	16ff\JJ	16aa\JJ
8G\	.	8G\	16ee\LL	16gg\LL
.	.	.	16dd\	16ff\
8G\J	.	8G\J	16cc\	16ee\
.	.	.	16b\JJ	16dd\JJ
=76-	=76-	=76-	=76-	=76-
8A\L	x x -	8A\L	8a/L	8cc\L
8F\	.	8Fny\	8a/	16aa\L
.	.	.	.	16gg\JJ
8F\	.	8F\	8a/	16ff\LL
.	.	.	.	16ee\
8F\J	.	8F\J	8a/J	16dd\
.	.	.	.	16cc\JJ
8G\L	.	8G\L	8b\L	16b\LL
.	.	.	.	16dd\
8E\	.	8E\	16ee\L	16gg\
.	.	.	16dd\JJ	16ff\JJ
8E\	x x 6	8E\	16cc/LL	16ee\LL
.	.	.	16b/	16dd\
8E\J	.	8E\J	16a/	16cc\
.	.	.	16g/JJ	16b\JJ
*	*	*custos:F	*custos:f	*
!	!	!	!LO:LB:g=original	!
=77-	=77-	=77-	=77	=77-
!	!	!LO:LB:g=original	!LO:TX:a:t=P:problem:mixed beam	!LO:TX:a:t=P:problem:mixed beam
8F\L	.	8F\L	8f/L	8a/L
8D\	.	8D\	16aa\L	16ff\L
.	.	.	16gg\JJ	16ee\JJ
8D\	.	8D\	16ff\LL	16dd\LL
.	.	.	16ee\	16cc\
8D\J	.	8D\J	16dd\	16b\
.	.	.	16cc\JJ	16a\JJ
!	!	!LO:TX:a:t=P:problem:mixed beam	!	!
8E\L	x 5 7-r	8E\L	16b\LL	16g/LL
.	.	.	16ee\	16g/
8F\J	.	8F\	16dd\	16fny/
.	.	.	16cc\JJ	16e/JJ
4G\	x 7 43	8G\	8.cc\L	16d/LL
.	.	.	.	16e/
.	.	8GG/J	.	16f/
.	.	.	16b\Jk	16g/JJ
=78	=78	=78-	=78-	=78
!LO:TX:a:t=P:problem:mixed beam	!	!LO:TX:a:t=P:problem:mixed beam	!	!
8C/L	.	8C\L	8cc\L	4e/
8c\	.	16c\L	8ee\	.
.	.	16B\JJ	.	.
8c\	.	16A\LL	8ee\	4r
.	.	16G\	.	.
8c\J	.	16F\	8ee\J	.
.	.	16E\JJ	.	.
!	!	!LO:TX:a:t=P:problem:mixed beam	!	!
8d\L	.	8D/L	8ff\L	8r
8B\	.	16d\L	8dd\	8bb\L
.	.	16c\JJ	.	.
8B\	.	16B\LL	8dd\	8bb\
.	.	16A\	.	.
8G\J	.	16G\	8dd\J	8bb\J
.	.	16F\JJ	.	.
=79-	=79-	=79-	=79-	=79-
8E\L	x x 6	8E\L	8ee\L	8ccc\L
16A\L	.	16A\L	8cc\	8aa\
16G\JJ	.	16G\JJ	.	.
16F\LL	.	16F\LL	8cc\	8aa\
16E\	.	16E\	.	.
16D\	.	16D\	8cc\J	8aa\J
16C\JJ	.	16C\JJ	.	.
!	!	!LO:TX:a:t=P:problem:mixed beam	!	!
8BB/L	.	16BB/LL	8dd\L	8bb\L
.	.	16GG/	.	.
8GG/	.	16G\	8b\	16bb\L
.	.	16F#X\JJ	.	16aa\JJ
8GG/	.	16E/LL	8b\	16gg\LL
.	.	16D/	.	16ff\
8GG/J	.	16C/	8b\J	16ee\
.	.	16BB/JJ	.	16dd\JJ
=80-	=80-	=80	=80-	=80-
!LO:TX:a:t=P:problem:mixed beam	!	!LO:TX:a:t=P:problem:mixed beam	!	!
8AA/L	.	8AA/L	8cc\L	4cc\
8A\	.	8A\	16ccc\L	.
.	.	.	16bb\JJ	.
8A\	.	8A\	16aa\LL	4r
.	.	.	16gg\	.
8A\J	.	8A\J	16ff\	.
.	.	.	16ee\JJ	.
!LO:TX:a:t=P:problem:mixed beam	!	!LO:TX:a:t=P:problem:mixed beam	!	!
8B\L	x x 6	8B\L	16dd\LL	8r
.	.	.	16b\	.
8BB/	.	8BB/	16dd\	16bb\LL
.	.	.	16cc\JJ	16aa\JJ
8BB/	.	8BB/	16b/LL	16gg\LL
.	.	.	16a/	16ff#X\
8BB/J	.	8BB/J	16g/	16ee\
!	!	!	!LO:TX:b:t=P:problem:# below	!
.	.	.	16f#X/JJ	16dd\JJ
*custos:C	*	*	*	*
!LO:LB:g=original	!	!	!	!
=81	=81	=81-	=81-	=81-
2C#X/	x x 6	2C#X/	8e/L	4ee\
.	.	.	8a/	.
.	x 9 -	.	8g/	[4ee\
.	.	.	8a/J	.
2D/	x 8 x	2D/	4.fny/	8ee\L]
.	.	.	.	8dd\J
.	.	.	.	4dd\
.	.	.	8f/	.
*	*	*	*	*custos:dd
=82-	=82-	=82-	=82-	=82-
!	!	!	!	!LO:LB:g=original
4GG/	x 6 5	4GG/	4.e/	4dd\
4AA/	x x #	4AA/	.	4cc#X\
.	.	.	8e/	.
2D/	x x #	2D/	2f#X/	2dd;\
==:||;;	==:||;;	==:||;;	==:||;;	==:||;;
*-	*-	*-	*-	*-
!!!system-decoration: [(s1,s2,s3,s4)]
!!!RDF**kern: i = editorial accidental
!!!ENC: Katarzyna Serwa
!!!END: 2022-01-30
!!!AIN: 1 organ 1 violb 2 violn
!!!ENC: Berenika Jozajtis
!!!END: 2022-01-21
